X: 2147
T: LOW DOWN IN THE BROOM
C:
Q: "Strathspey."
R: Strathspey.
%R: strathspey
B: James Kerr "Merry Melodies" v.2 p.17 #147
Z: 2016 John Chambers <jc:trillian.mit.edu>
M: C
L: 1/8
K: D
ud |\
vD<DE>uF vd>vcuB>uA | B>AB>d e2(d/e/f) |\
vD<DE>uF d>cB>A | B>AB>c d3 ::\
uA |\
vd<fe>ud vB<dA>uF | vA>vAug>uf f2(e>a) |\
f>af>d B>dA>F | A<AB>c d3 :|
